X:81
T: Széles vízen keskeny palló, bel'esem...
M: 4/4
L: 1/4
K: F
Ggba/g/ | g<f c2 | 
aa/g/g/f/a/g/ | d<d d2 | 
f f/d/ f/_e/d/c/ | d<B F2 |
d d/c/ B c | G<G G2 | 

